X:1
T:082 - O GÃ³lgota
T:Letra: Cecil Frances Alexander (1818-1895)
T:Trad.: JoÃ£o Gomes da Rocha (1861-1947)
T:MÃºsica: Richard Storrs Willis (1819-1900)
M:6/8
L:1/8
K:F#maj
V:1
C | "F#"A2G "B"GFD | "F#"C2D C2C | "B"DEF FGA | "C#7"G3- G2 A | "F#"A2E "B"GFD | "F#"C2D C2C | "B"D2D "C#7"EDC | "F#"F3- F2 || A | "A#7"A2A, A,^B,^^C | "D#m"D2E F2A | "G#7"GFE DED | "C#7"C3- C2 C | "F#"A2E "B"GFD | "F#"C2D C2C | "B"D2D "C#7"EDC | "F#"F3- F2 |]
w:1.~Mui lon-geo mon_te ver-dees-tÃ¡, Ao nor_te de_ Si-Ã£o,_ No qual o bom_ Je-sus, na cruz, Nos deu a sal_va-Ã§Ã£o._ Oh, quan-to, quan_to nos a-mou! A-me_mo-lo_ tam-bÃ©m;_ E con-fi-an_doem seu a-mor, Fa-Ã§a-mos to_doo bem!_
w:2.~Quem son-da-rÃ¡,_ quem con-ta-rÃ¡ A dor_ que pa_de-ceu?_ Mas crer po-de_mos, foi por nÃ³s O que na cruz_ so-freu._
w:3.~Mor-reu pra dar_nos o per-dÃ£o, Mor-reu_ pra ser_mos bons,_ Praen-trar-mos na_ man-sÃ£o de Deus, Com lim-pos co_ra-Ã§Ãµes._
w:4.~Nin-guÃ©m po-di_a,a-qui, pa-gar A pe_nau-ni_ver-sal;_ SÃ³ Cris-to pÃ´_de nos re-mir, Ao pre-Ã§o di_vi-nal._
W:
W:
W:1. Mui longe o monte verde estÃ¡,
W:Ao norte de SiÃ£o, 
W:No qual o bom Jesus, na cruz,
W:Nos deu a salvaÃ§Ã£o.
W:
W:(Estribilho)
W:Oh, quanto, quanto nos amou!
W:Amemo-lo tambÃ©m;
W:E confiando em seu amor,
W:FaÃ§amos todo o bem!
W:
W:2. Quem sondarÃ¡, quem contarÃ¡
W:A dor que padeceu?
W:Mas crer podemos, foi por nÃ³s
W:O que na cruz sofreu.
W:
W:
W:
W:3. Morreu pra dar-nos o perdÃ£o,
W:Morreu pra sermos bons,
W:Pra entrarmos na mansÃ£o de Deus,
W:Com limpos coraÃ§Ãµes.
W:
W:4. NinguÃ©m podia, aqui, pagar
W:A pena universal;
W:SÃ³ Cristo pÃ´de nos remir,
W:Ao preÃ§o divinal.
W:
W:

